X:1
T:Guide Us Aright
T:Guide Us Aright
T:William Asbury Williams
T:Sue Ella Chittam, 1913
T:Public Domain Courtesy of the Cyber Hymnal™
T:Public Domain Courtesy of the Cyber Hymnal™
C:William Asbury Williams
Z:Public Domain
Z:Courtesy of the Cyber Hymnal™
%%score ( 1 2 ) 3
L:1/8
Q:1/4=90
M:6/8
K:Eb
V:1 treble 
V:2 treble 
V:3 bass 
V:1
 [B,E] | [EG][EG][EG] [EG]2 E | [GB][GB][GB] [GB]2 [Ac] | x6 | [GB][EG][B,E] [EG]2 [EF] | %5
w: 1.~While|la- bor- ing here, dear|Sav- ior, be near And||keep us by day and|
w: 2.~Ho-|san- nas we sing, to|Je- sus, our king, Who||died on the cross to|
w: 3.~O|Fa- ther of might, now|guide us a- right, And||keep us from sin al-|
 [DF]3- [DF]2 [B,E] | [EG][EG][EG] [EG]2 E | [GB][GB][GB] [GB]2 [Ac] | [GB][EG][CE] [EG][EG][DF] | %9
w: night; * O|bless Thou us all what-|ev- er be- fall, And|ten- der- ly guide us a-|
w: save * From|sin and its woes, His|friends and His foes, O|con- queror of death and the|
w: way; * When|life here is done, thro’|faith in Thy Son, Re-|ceive us to glo- ry for|
 E3- E2 ||"^Refrain" [EB] x5 | [Ge][Ge][Ge] [Ge]2 [GB] | [Ac][GB][GB] [GB]2 [GB] | %13
w: right! *||||
w: grave! *|O|help us each day, our|Sav- ior, we pray, Thou|
w: aye! *||||
 [Ad][Ad][Ad] [Ad]2 [AB] | [Ac][GB][GB] [GB]2 [GB] | [Ge][Ge][Ge] [Ge]2 [GB] | %16
w: |||
w: know- est we’re weak and|temp- ted to roam; O|guide us a- right, Thou|
w: |||
 [Ac][Ac][Ac] !fermata![Ac]2 [Ac] | [GB][EG][CE] [EG]2 [DF] x | [B,E]3- [B,E]4 |] %19
w: |||
w: glor- i- ous light, And|crown us in Heav’n, Thy|home! *|
w: |||
V:2
 x | x5 E | x6 | x6 | x6 | x6 | x5 E | x6 | x6 | E3- E2 || x6 | x6 | x6 | x6 | x6 | x6 | x6 | x7 | %18
 x7 |] %19
V:3
 [E,G,] | [E,B,][E,B,][E,B,] [E,B,]2 [E,G,] | [E,E][E,E][E,E] [E,E]2 [E,E] | %3
 [E,E][E,B,][E,G,] [E,B,]2 [C,=A,] | [B,,B,]3- [B,,B,]2 [E,G,] | %5
 [E,B,][E,B,][E,B,] [E,B,]2 [E,G,] | [E,E][E,E][E,E] [E,E]2 [A,,E] | %7
 [B,,E][B,,B,][C,G,] [B,,B,][B,,B,][B,,A,] | [E,G,]3- [E,G,]2 x | [E,G,] x4 || %10
 [E,B,][E,B,][E,B,] [E,B,]2 [E,E] | [E,E][E,E][E,E] [E,E]2 [E,E] | %12
 [B,,F][B,,F][B,,F] [B,,F]2 [B,,D] | [E,E][E,E][E,E] [E,E]2 [E,E] | %14
 [E,B,][E,B,][E,B,] [E,B,]2 [E,E] | [A,E][A,E][A,E] !fermata![A,E]2 [A,,E] | %16
 [B,,E][B,,B,][C,G,] [B,,B,]2 [B,,A,] | [E,G,]3- [E,G,]4 | x7 |] %19

